X:1
T:Seamus O'Brien
R:Waltz
M:3/4
%%printtempo 0
Q:120
K:G
g>f|\
"G"e2d2B>A|G4 D>D|"C"E2G2E2|"G"D2-D>E D>C|"G"B,2D2G>B|"Em"e2d2B2|
"Am"A4-A>B|"D"A4g>f|"G"e2d2B>A|G4D>D|"C"E2G2c2|"C#dim"e2-e>g f>e|
"G"d2B2G>B|"D"A2E2F2|"G"G4-G>A|G4||B2|"Em"e2-e>d e>f|g2f2e2|
"B"f2B2-B>c|B4B2|"Em"e2-e>d e>f|"Em/D"g2f2g2|"C"f6|"D"g4f2|"G"e2d2B>A|
"G"G4D>D|"C"E2G2c2|"C#dim"e2-e>g f>e|"G"d2B2 G>B|"D"A2E2F2|"G"G4-G>A|G4|]
